X:6
T:Brixham Town
T:(J. Webb)
%%VWML:SBG-1-1-39-0
F:http://www.vwml.org/record/SBG/1/1/39
C:Taken down from J. Webb, Post Bridge, by H.Fl.Sh. 1887
Z:Original Sibleius Transcription by Martin and Shan Graebe
L:1/8
M:2/4
I:linebreak $
K:C
G | G2 c c c c3 d | e e e d | e3 d/c/ | c e g g | a3 g | f3/2 d/ e3/2 c/ | d3 d |$ e d e g | 
c3 e | d c B A | G3 e/f/ | g g g a | f3 g/f/ | e3 c/ d3 B/ | c3 |] 
T:Brixham town
T:(N. Tawton)
C:Version sent me from N. Tawton.
L:1/4
M:4/4
I:linebreak $
K:Bb
F | F B B B | B3 B | d d d d | d3 B | f f f f | f3 e | d2 c2 | c3 |$ c | d d d f | B3 d | 
e d c B | F3 A | B B B A | G3 E | F2 A2 | B4 |] 

